X: 1
T: Askvalsen av Johan Ask
O: transcribed by Bruce Sagan
C: by Johan Ask
S: Bruce Sagan's "scanfolk" session archive
F: https://app.box.com/s/u6iiren0igvsukrhdducy7orq72jayq8/file/867992789043
R: waltz
Z: 2021 John Chambers <jc:trillian.mit.edu>
M: 3/4
L: 1/8
P: (A1A2)x2+(BBA2)x2+CD1D2
K: D
%%vskip 10
"^A"|:\
d2 c2 A2 | G2 E4 | d3 c A2 | G6 || F3 E F2 |\
[1,3 G2 B2 B2 | A2 cB cd | e6 :|[2,4 G2 E2 C2 | D3 F E2 | D6 :|
K: A
"B"|:\
A,3 B, C2 | D2 E2 F2 | E2 F2 G2 | A6 || B3 c d2 | c2 e2 d2 | c2 A2 BG | A6 :|
P: Play A2, repeat BBA2.
%%vskip 10
"^C"\
[| A,3 B, C2 | D2 E2 F2 | E2 F2 G2 | A2 B2 c2 || B3 c ^d2 | e2 f2 g2 | a2 f2 ^d2 | e6 ||
"^D"\
|: a2 g2 e2 | d2 B4 | a3 g e2 | d6 || c3 B c2 |\
[1 d2 f2 f2 | e2 gf ga | b6 :|[2 d2 B2 G2 | A3 c B2 | "^ d.C."A6 |]
%%text End with a final A2 as coda.
%%text Note that the D part is the A part up a 5th.
